assets/img/Main-Logo-2.svg

<svg width="170" height="19" viewBox="0 0 170 19" fill="none" xmlns="http://www.w3.org/2000/svg">
<path d="M7.35995 0.87802C9.24901 0.87802 10.8998 1.25243 12.3124 2.00125C13.7249 2.75006 14.8141 3.80522 15.5799 5.1667C16.3628 6.51117 16.7542 8.06837 16.7542 9.8383C16.7542 11.5912 16.3628 13.1484 15.5799 14.5099C14.8141 15.8714 13.7164 16.9265 12.2868 17.6754C10.8743 18.4242 9.23199 18.7986 7.35995 18.7986H0.646118V0.87802H7.35995ZM7.07914 15.0205C8.72994 15.0205 10.0148 14.5695 10.9339 13.6675C11.8529 12.7655 12.3124 11.4891 12.3124 9.8383C12.3124 8.1875 11.8529 6.9026 10.9339 5.98359C10.0148 5.06459 8.72994 4.60509 7.07914 4.60509H5.01138V15.0205H7.07914Z" fill="black"/>
<path d="M23.559 4.37534V8.0003H29.4049V11.37H23.559V15.3013H30.1707V18.7986H19.1937V0.87802H30.1707V4.37534H23.559Z" fill="black"/>
<path d="M49.8276 0.87802L43.4711 18.7986H38.0082L31.6517 0.87802H36.2978L40.7396 14.4078L45.207 0.87802H49.8276Z" fill="black"/>
<path d="M71.9467 0.87802V18.7986H67.5814V8.05135L63.5735 18.7986H60.0507L56.0173 8.02582V18.7986H51.652V0.87802H56.8086L61.8376 13.2846L66.8156 0.87802H71.9467Z" fill="black"/>
<path d="M83.561 18.9773C81.8762 18.9773 80.3275 18.5859 78.915 17.803C77.5195 17.0201 76.4047 15.931 75.5708 14.5354C74.7539 13.1229 74.3455 11.5402 74.3455 9.78725C74.3455 8.03433 74.7539 6.46011 75.5708 5.06459C76.4047 3.66907 77.5195 2.57988 78.915 1.79702C80.3275 1.01417 81.8762 0.622742 83.561 0.622742C85.2459 0.622742 86.7861 1.01417 88.1816 1.79702C89.5941 2.57988 90.7003 3.66907 91.5002 5.06459C92.3171 6.46011 92.7256 8.03433 92.7256 9.78725C92.7256 11.5402 92.3171 13.1229 91.5002 14.5354C90.6833 15.931 89.5771 17.0201 88.1816 17.803C86.7861 18.5859 85.2459 18.9773 83.561 18.9773ZM83.561 14.9949C84.9906 14.9949 86.1309 14.5184 86.9818 13.5654C87.8497 12.6123 88.2837 11.353 88.2837 9.78725C88.2837 8.20452 87.8497 6.94514 86.9818 6.00912C86.1309 5.05608 84.9906 4.57956 83.561 4.57956C82.1145 4.57956 80.9572 5.04757 80.0893 5.98359C79.2383 6.91962 78.8129 8.1875 78.8129 9.78725C78.8129 11.37 79.2383 12.6379 80.0893 13.5909C80.9572 14.5269 82.1145 14.9949 83.561 14.9949Z" fill="black"/>
<path d="M104.293 18.7986L100.566 12.0337H99.5194V18.7986H95.1541V0.87802H102.481C103.893 0.87802 105.093 1.12479 106.08 1.61833C107.084 2.11187 107.833 2.79261 108.326 3.66056C108.82 4.51149 109.067 5.46453 109.067 6.51968C109.067 7.71098 108.726 8.77464 108.046 9.71066C107.382 10.6467 106.395 11.3104 105.084 11.7018L109.22 18.7986H104.293ZM99.5194 8.94483H102.225C103.025 8.94483 103.621 8.74911 104.012 8.35769C104.421 7.96626 104.625 7.41315 104.625 6.69837C104.625 6.01763 104.421 5.48155 104.012 5.09012C103.621 4.69869 103.025 4.50298 102.225 4.50298H99.5194V8.94483Z" fill="black"/>
<path d="M125.464 6.64732C125.464 7.68545 125.226 8.63849 124.75 9.50644C124.273 10.3574 123.541 11.0466 122.554 11.5742C121.567 12.1018 120.342 12.3656 118.878 12.3656H116.172V18.7986H111.807V0.87802H118.878C120.308 0.87802 121.516 1.12479 122.503 1.61833C123.49 2.11187 124.231 2.79261 124.724 3.66056C125.218 4.5285 125.464 5.52409 125.464 6.64732ZM118.546 8.89377C119.38 8.89377 120.001 8.69806 120.41 8.30663C120.818 7.9152 121.023 7.3621 121.023 6.64732C121.023 5.93254 120.818 5.37944 120.41 4.98801C120.001 4.59658 119.38 4.40087 118.546 4.40087H116.172V8.89377H118.546Z" fill="black"/>
<path d="M143.258 0.87802V18.7986H138.893V11.421H132.102V18.7986H127.737V0.87802H132.102V7.89818H138.893V0.87802H143.258Z" fill="black"/>
<path d="M150.775 0.87802V18.7986H146.409V0.87802H150.775Z" fill="black"/>
<path d="M164.92 18.7986L161.269 13.3101L158.053 18.7986H153.101L158.844 9.68514L152.973 0.878021H158.053L161.652 6.28993L164.818 0.878021H169.77L164.078 9.91489L170 18.7986H164.92Z" fill="#7000FF"/>
</svg>

<svg width="170" height="19" fill="none" xmlns="http://www.w3.org/2000/svg"><path d="M7.36.878c1.889 0 3.54.374 4.952 1.123 1.413.75 2.502 1.804 3.268 3.166.783 1.344 1.174 2.901 1.174 4.671 0 1.753-.391 3.31-1.174 4.672-.766 1.361-1.864 2.417-3.293 3.165-1.413.75-3.055 1.124-4.927 1.124H.646V.878H7.36Zm-.28 14.143c1.65 0 2.935-.452 3.854-1.354.919-.902 1.378-2.178 1.378-3.829 0-1.65-.46-2.935-1.378-3.854-.92-.92-2.204-1.379-3.855-1.379H5.011v10.416H7.08ZM23.559 4.375V8h5.846v3.37h-5.846v3.931h6.612V18.8H19.194V.878H30.17v3.497h-6.612ZM49.828.878l-6.357 17.92h-5.463L31.652.879h4.646l4.442 13.53L45.207.878h4.62ZM71.947.878v17.92H67.58V8.052L63.573 18.8h-3.522L56.017 8.026v10.773h-4.365V.878h5.157l5.029 12.407L66.816.878h5.13ZM83.561 18.977c-1.685 0-3.234-.391-4.646-1.174a8.927 8.927 0 0 1-3.344-3.268c-.817-1.412-1.225-2.995-1.225-4.748 0-1.753.408-3.327 1.225-4.722a8.928 8.928 0 0 1 3.344-3.268c1.412-.783 2.961-1.174 4.646-1.174s3.225.391 4.62 1.174a8.508 8.508 0 0 1 3.32 3.268c.816 1.395 1.225 2.97 1.225 4.722 0 1.753-.409 3.336-1.226 4.748a8.74 8.74 0 0 1-3.318 3.268c-1.396.783-2.936 1.174-4.621 1.174Zm0-3.982c1.43 0 2.57-.477 3.42-1.43.869-.953 1.303-2.212 1.303-3.778 0-1.582-.434-2.842-1.302-3.778-.851-.953-1.991-1.43-3.421-1.43-1.447 0-2.604.469-3.472 1.405-.85.936-1.276 2.204-1.276 3.803 0 1.583.425 2.85 1.276 3.804.868.936 2.026 1.404 3.472 1.404ZM104.293 18.799l-3.727-6.765h-1.047v6.765h-4.365V.878h7.327c1.412 0 2.612.247 3.599.74 1.004.494 1.753 1.175 2.246 2.043.494.85.741 1.804.741 2.859 0 1.191-.341 2.255-1.021 3.19-.664.937-1.651 1.6-2.962 1.992l4.136 7.097h-4.927Zm-4.774-9.854h2.706c.8 0 1.396-.196 1.787-.587.409-.392.613-.945.613-1.66 0-.68-.204-1.216-.613-1.608-.391-.391-.987-.587-1.787-.587h-2.706v4.442ZM125.464 6.647a5.848 5.848 0 0 1-.714 2.86c-.477.85-1.209 1.54-2.196 2.067-.987.528-2.212.792-3.676.792h-2.706v6.433h-4.365V.878h7.071c1.43 0 2.638.247 3.625.74.987.494 1.728 1.175 2.221 2.043.494.868.74 1.863.74 2.986Zm-6.918 2.247c.834 0 1.455-.196 1.864-.587.408-.392.613-.945.613-1.66 0-.714-.205-1.268-.613-1.659-.409-.391-1.03-.587-1.864-.587h-2.374v4.493h2.374ZM143.258.878v17.92h-4.365v-7.377h-6.791v7.378h-4.365V.878h4.365v7.02h6.791V.878h4.365ZM150.775.878v17.92h-4.366V.879h4.366Z" fill="#000"/><path d="m164.92 18.799-3.651-5.489-3.216 5.489h-4.952l5.743-9.114-5.871-8.807h5.08l3.599 5.412 3.166-5.412h4.952l-5.692 9.037L170 18.799h-5.08Z" fill="#7000FF"/></svg>
